resources/svg/major-slideshow.svg

<svg xmlns="http://www.w3.org/2000/svg" viewBox="0 0 20 20" fill="currentColor"><path fill-rule="evenodd" d="M1 2.5a1.5 1.5 0 0 1 1.5-1.5h15a1.5 1.5 0 0 1 1.5 1.5v12a1.5 1.5 0 0 1-1.5 1.5h-15a1.5 1.5 0 0 1-1.5-1.5v-12zm8 2.5a2 2 0 1 1-4 0 2 2 0 0 1 4 0zm6.57 9h-11.143c-.351 0-.548-.368-.343-.632l3.046-3.24a.448.448 0 0 1 .617-.009l1.396 1.481 2.623-3.825a.446.446 0 0 1 .72.016l3.462 5.609c.154.272-.052.6-.377.6z"/><path d="M6 20a1 1 0 1 0 0-2 1 1 0 0 0 0 2zm5-1a1 1 0 1 1-2 0 1 1 0 0 1 2 0zm3 1a1 1 0 1 0 0-2 1 1 0 0 0 0 2z"/></svg>

<svg xmlns="http://www.w3.org/2000/svg" viewBox="0 0 20 20" fill="currentColor"><path fill-rule="evenodd" d="M1 2.5A1.5 1.5 0 012.5 1h15A1.5 1.5 0 0119 2.5v12a1.5 1.5 0 01-1.5 1.5h-15A1.5 1.5 0 011 14.5v-12zM9 5a2 2 0 11-4 0 2 2 0 014 0zm6.57 9H4.427c-.351 0-.548-.368-.343-.632l3.046-3.24a.448.448 0 01.617-.009L9.143 11.6l2.623-3.825a.446.446 0 01.72.016l3.462 5.609c.154.272-.052.6-.377.6z" fill="#5C5F62"/><path d="M6 20a1 1 0 100-2 1 1 0 000 2zM11 19a1 1 0 11-2 0 1 1 0 012 0zM14 20a1 1 0 100-2 1 1 0 000 2z" fill="#5C5F62"/></svg>
